X:7278
T:The Road to Batosh
O:england
M:4/4
L:1/8
Q:240
S:Jimmy Larocque (Turtle Mountain, ND)
R:reel
K:E Dorian
E2 B,E GFEG | B=cBG EGFE | D2 A,D FE (3DEF | ABAG FEDF |
E2 B,E GFEG | B=cBG E2 (3ABc | dBcA B2 AE |1 GEFD E3 F :|2 GEFD E4 ||
{B}e4  e2 ef | gef^d efec | (3ABc de f2 de | fdec (3dcB AF |
EBef edef | gef^d e2 (3ABc | dBcA B2 AE | GEFD E4 :||


